assets/images/placeholder-rect.svg

<svg enable-background="new 0 0 1440 900" viewBox="0 0 1440 900" xmlns="http://www.w3.org/2000/svg" xmlns:xlink="http://www.w3.org/1999/xlink"><clipPath id="a"><path d="m0 0h1440v900h-1440z"/></clipPath><g clip-path="url(#a)"><path clip-rule="evenodd" d="m0 0h1440v900h-1440z" fill="#f2f2f2" fill-rule="evenodd"/></g><g clip-path="url(#a)"><path d="m720 4v899zm0 0h-1v900h1z"/></g><g clip-path="url(#a)"><path d="m1440 450h-1440v1h1440z"/></g><g clip-path="url(#a)"><path d="m720 1c60.6 0 119.4 11.9 174.8 35.3 53.5 22.6 101.5 55 142.7 96.2s73.6 89.3 96.2 142.7c23.4 55.4 35.3 114.2 35.3 174.8s-11.9 119.4-35.3 174.8c-22.6 53.5-55 101.5-96.2 142.7s-89.3 73.6-142.7 96.2c-55.4 23.4-114.2 35.3-174.8 35.3s-119.4-11.9-174.8-35.3c-53.5-22.6-101.5-55-142.7-96.2s-73.6-89.3-96.2-142.7c-23.4-55.4-35.3-114.2-35.3-174.8s11.9-119.4 35.3-174.8c22.6-53.5 55-101.5 96.2-142.7s89.3-73.6 142.7-96.2c55.4-23.4 114.2-35.3 174.8-35.3m0-1c-248.5 0-450 201.5-450 450s201.5 450 450 450 450-201.5 450-450-201.5-450-450-450z"/></g><g clip-path="url(#a)"><path d="m1171-449c60.6 0 119.4 11.9 174.8 35.3 53.5 22.6 101.5 55 142.7 96.2s73.6 89.3 96.2 142.7c23.4 55.4 35.3 114.2 35.3 174.8s-11.9 119.4-35.3 174.8c-22.6 53.5-55 101.5-96.2 142.7s-89.3 73.6-142.7 96.2c-55.4 23.4-114.2 35.3-174.8 35.3s-119.4-11.9-174.8-35.3c-53.5-22.6-101.5-55-142.7-96.2s-73.6-89.3-96.2-142.7c-23.4-55.4-35.3-114.2-35.3-174.8s11.9-119.4 35.3-174.8c22.6-53.5 55-101.5 96.2-142.7s89.3-73.6 142.7-96.2c55.4-23.4 114.2-35.3 174.8-35.3m0-1c-248.5 0-450 201.5-450 450s201.5 450 450 450 450-201.5 450-450-201.5-450-450-450z"/></g><g clip-path="url(#a)"><path d="m271-449c60.6 0 119.4 11.9 174.8 35.3 53.5 22.6 101.5 55 142.7 96.2s73.6 89.3 96.2 142.7c23.4 55.4 35.3 114.2 35.3 174.8s-11.9 119.4-35.3 174.8c-22.6 53.5-55 101.5-96.2 142.7s-89.3 73.6-142.7 96.2c-55.4 23.4-114.2 35.3-174.8 35.3s-119.4-11.9-174.8-35.3c-53.5-22.6-101.5-55-142.7-96.2s-73.6-89.3-96.2-142.7c-23.4-55.4-35.3-114.2-35.3-174.8s11.9-119.4 35.3-174.8c22.6-53.5 55-101.5 96.2-142.7s89.3-73.6 142.7-96.2c55.4-23.4 114.2-35.3 174.8-35.3m0-1c-248.5 0-450 201.5-450 450s201.5 450 450 450 450-201.5 450-450-201.5-450-450-450z"/></g><g clip-path="url(#a)"><path d="m1171 451c60.6 0 119.4 11.9 174.8 35.3 53.5 22.6 101.5 55 142.7 96.2s73.6 89.3 96.2 142.7c23.4 55.4 35.3 114.2 35.3 174.8s-11.9 119.4-35.3 174.8c-22.6 53.5-55 101.5-96.2 142.7s-89.3 73.6-142.7 96.2c-55.4 23.4-114.2 35.3-174.8 35.3s-119.4-11.9-174.8-35.3c-53.5-22.6-101.5-55-142.7-96.2s-73.6-89.3-96.2-142.7c-23.4-55.4-35.3-114.2-35.3-174.8s11.9-119.4 35.3-174.8c22.6-53.5 55-101.5 96.2-142.7s89.3-73.6 142.7-96.2c55.4-23.4 114.2-35.3 174.8-35.3m0-1c-248.5 0-450 201.5-450 450s201.5 450 450 450 450-201.5 450-450-201.5-450-450-450z"/></g><g clip-path="url(#a)"><path d="m271 451c60.6 0 119.4 11.9 174.8 35.3 53.5 22.6 101.5 55 142.7 96.2s73.6 89.3 96.2 142.7c23.4 55.4 35.3 114.2 35.3 174.8s-11.9 119.4-35.3 174.8c-22.6 53.5-55 101.5-96.2 142.7s-89.3 73.6-142.7 96.2c-55.4 23.4-114.2 35.3-174.8 35.3s-119.4-11.9-174.8-35.3c-53.5-22.6-101.5-55-142.7-96.2s-73.6-89.3-96.2-142.7c-23.4-55.4-35.3-114.2-35.3-174.8s11.9-119.4 35.3-174.8c22.6-53.5 55-101.5 96.2-142.7s89.3-73.6 142.7-96.2c55.4-23.4 114.2-35.3 174.8-35.3m0-1c-248.5 0-450 201.5-450 450s201.5 450 450 450 450-201.5 450-450-201.5-450-450-450z"/></g><g clip-path="url(#a)"><path d="m-138.3-409-.7.7 1717.3 1717.3.7-.7z"/></g><g clip-path="url(#a)"><path d="m1578.3-409-1717.3 1717.3.7.7 1717.3-1717.3z"/></g></svg>

<?xml version="1.0" encoding="utf-8"?>
<!-- Generator: Adobe Illustrator 20.1.0, SVG Export Plug-In . SVG Version: 6.00 Build 0)  -->
<svg version="1.1" id="Layer_1" xmlns="http://www.w3.org/2000/svg" xmlns:xlink="http://www.w3.org/1999/xlink" x="0px" y="0px"
	 viewBox="0 0 1440 900" style="enable-background:new 0 0 1440 900;" xml:space="preserve">
<style type="text/css">
	.st0{clip-path:url(#SVGID_2_);}
	.st1{fill-rule:evenodd;clip-rule:evenodd;fill:#F2F2F2;}
</style>
<g>
	<defs>
		<rect id="SVGID_1_" width="1440" height="900"/>
	</defs>
	<clipPath id="SVGID_2_">
		<use xlink:href="#SVGID_1_"  style="overflow:visible;"/>
	</clipPath>
	<g class="st0">
		<rect class="st1" width="1440" height="900"/>
	</g>
	<g class="st0">
		<path d="M720,4v899l0,0V4L720,4 M720,4h-1v900h1V4L720,4z"/>
	</g>
	<g class="st0">
		<polygon points="1440,450 0,450 0,451 1440,451 1440,450 		"/>
	</g>
	<g class="st0">
		<path d="M720,1c60.6,0,119.4,11.9,174.8,35.3c53.5,22.6,101.5,55,142.7,96.2c41.2,41.2,73.6,89.3,96.2,142.7
			c23.4,55.4,35.3,114.2,35.3,174.8s-11.9,119.4-35.3,174.8c-22.6,53.5-55,101.5-96.2,142.7c-41.2,41.2-89.3,73.6-142.7,96.2
			C839.4,887.1,780.6,899,720,899s-119.4-11.9-174.8-35.3c-53.5-22.6-101.5-55-142.7-96.2c-41.2-41.2-73.6-89.3-96.2-142.7
			C282.9,569.4,271,510.6,271,450s11.9-119.4,35.3-174.8c22.6-53.5,55-101.5,96.2-142.7c41.2-41.2,89.3-73.6,142.7-96.2
			C600.6,12.9,659.4,1,720,1 M720,0C471.5,0,270,201.5,270,450s201.5,450,450,450s450-201.5,450-450S968.5,0,720,0L720,0z"/>
	</g>
	<g class="st0">
		<path d="M1171-449c60.6,0,119.4,11.9,174.8,35.3c53.5,22.6,101.5,55,142.7,96.2c41.2,41.2,73.6,89.3,96.2,142.7
			C1608.1-119.4,1620-60.6,1620,0s-11.9,119.4-35.3,174.8c-22.6,53.5-55,101.5-96.2,142.7c-41.2,41.2-89.3,73.6-142.7,96.2
			c-55.4,23.4-114.2,35.3-174.8,35.3s-119.4-11.9-174.8-35.3c-53.5-22.6-101.5-55-142.7-96.2c-41.2-41.2-73.6-89.3-96.2-142.7
			C733.9,119.4,722,60.6,722,0s11.9-119.4,35.3-174.8c22.6-53.5,55-101.5,96.2-142.7c41.2-41.2,89.3-73.6,142.7-96.2
			C1051.6-437.1,1110.4-449,1171-449 M1171-450C922.5-450,721-248.5,721,0s201.5,450,450,450s450-201.5,450-450S1419.5-450,1171-450
			L1171-450z"/>
	</g>
	<g class="st0">
		<path d="M271-449c60.6,0,119.4,11.9,174.8,35.3c53.5,22.6,101.5,55,142.7,96.2c41.2,41.2,73.6,89.3,96.2,142.7
			C708.1-119.4,720-60.6,720,0s-11.9,119.4-35.3,174.8c-22.6,53.5-55,101.5-96.2,142.7c-41.2,41.2-89.3,73.6-142.7,96.2
			C390.4,437.1,331.6,449,271,449s-119.4-11.9-174.8-35.3c-53.5-22.6-101.5-55-142.7-96.2c-41.2-41.2-73.6-89.3-96.2-142.7
			C-166.1,119.4-178,60.6-178,0s11.9-119.4,35.3-174.8c22.6-53.5,55-101.5,96.2-142.7c41.2-41.2,89.3-73.6,142.7-96.2
			C151.6-437.1,210.4-449,271-449 M271-450C22.5-450-179-248.5-179,0S22.5,450,271,450S721,248.5,721,0S519.5-450,271-450L271-450z"
			/>
	</g>
	<g class="st0">
		<path d="M1171,451c60.6,0,119.4,11.9,174.8,35.3c53.5,22.6,101.5,55,142.7,96.2c41.2,41.2,73.6,89.3,96.2,142.7
			c23.4,55.4,35.3,114.2,35.3,174.8s-11.9,119.4-35.3,174.8c-22.6,53.5-55,101.5-96.2,142.7s-89.3,73.6-142.7,96.2
			c-55.4,23.4-114.2,35.3-174.8,35.3s-119.4-11.9-174.8-35.3c-53.5-22.6-101.5-55-142.7-96.2c-41.2-41.2-73.6-89.3-96.2-142.7
			C733.9,1019.4,722,960.6,722,900s11.9-119.4,35.3-174.8c22.6-53.5,55-101.5,96.2-142.7c41.2-41.2,89.3-73.6,142.7-96.2
			C1051.6,462.9,1110.4,451,1171,451 M1171,450c-248.5,0-450,201.5-450,450s201.5,450,450,450s450-201.5,450-450
			S1419.5,450,1171,450L1171,450z"/>
	</g>
	<g class="st0">
		<path d="M271,451c60.6,0,119.4,11.9,174.8,35.3c53.5,22.6,101.5,55,142.7,96.2c41.2,41.2,73.6,89.3,96.2,142.7
			C708.1,780.6,720,839.4,720,900s-11.9,119.4-35.3,174.8c-22.6,53.5-55,101.5-96.2,142.7c-41.2,41.2-89.3,73.6-142.7,96.2
			c-55.4,23.4-114.2,35.3-174.8,35.3s-119.4-11.9-174.8-35.3c-53.5-22.6-101.5-55-142.7-96.2s-73.6-89.3-96.2-142.7
			C-166.1,1019.4-178,960.6-178,900s11.9-119.4,35.3-174.8c22.6-53.5,55-101.5,96.2-142.7c41.2-41.2,89.3-73.6,142.7-96.2
			C151.6,462.9,210.4,451,271,451 M271,450c-248.5,0-450,201.5-450,450s201.5,450,450,450s450-201.5,450-450S519.5,450,271,450
			L271,450z"/>
	</g>
	<g class="st0">
		<polygon points="-138.3,-409 -139,-408.3 1578.3,1309 1579,1308.3 -138.3,-409 		"/>
	</g>
	<g class="st0">
		<polygon points="1578.3,-409 -139,1308.3 -138.3,1309 1579,-408.3 1578.3,-409 		"/>
	</g>
</g>
</svg>
